src/images/PartnerVostochniy.svg

<svg width="192" height="48" viewBox="0 0 192 48" fill="none" xmlns="http://www.w3.org/2000/svg">
<g opacity="0.5" clip-path="url(#clip0)">
<path d="M38.6869 16.3196C38.3989 15.8396 38.3989 15.3596 38.4949 14.8796C38.5909 14.3996 38.9749 14.0156 39.3589 13.7276L47.9989 8.73565C48.0949 8.73565 48.2869 8.63965 48.4789 8.63965C48.6709 8.63965 48.8629 8.73565 48.9589 8.73565L57.5989 13.6316C57.9829 13.9196 58.3669 14.3036 58.4629 14.7836C58.5589 15.2636 58.5589 15.7436 58.2709 16.2236C57.9829 16.6076 57.5989 16.9916 57.1189 17.0876C56.6389 17.2796 56.1589 17.2796 55.6789 16.9916L48.4789 12.8636L41.2789 16.9916C41.0869 17.0876 40.7989 17.1836 40.6069 17.2796H39.8389C39.5509 17.1836 39.3589 17.0876 39.1669 16.9916C38.9749 16.7036 38.8789 16.5116 38.6869 16.3196V16.3196Z" fill="#555F8C"/>
<path d="M56.5457 19.1044H40.5137C40.2257 19.1044 40.0337 19.2004 39.8417 19.3924C39.6497 19.5844 39.5537 19.7764 39.5537 20.0644V29.2804C39.5537 29.8564 39.7457 30.4324 40.2257 30.8164C40.6097 31.2004 41.1857 31.4884 41.7617 31.4884C42.3377 31.4884 42.9137 31.2964 43.2977 30.8164C43.6817 30.4324 43.9697 29.8564 43.9697 29.2804V22.8484H46.5617V29.2804C46.5617 29.8564 46.7537 30.4324 47.2337 30.8164C47.6177 31.2004 48.1937 31.4884 48.7697 31.4884C49.3457 31.4884 49.9217 31.2964 50.3057 30.8164C50.6897 30.4324 50.9777 29.8564 50.9777 29.2804V22.8484H53.5697V29.2804C53.5697 29.8564 53.7617 30.4324 54.2417 30.8164C54.6257 31.2004 55.2017 31.4884 55.7777 31.4884C56.3537 31.4884 56.9297 31.2964 57.3137 30.8164C57.6977 30.4324 57.9857 29.8564 57.9857 29.2804V20.0644C57.8897 19.7764 57.7937 19.5844 57.6017 19.3924C57.0257 19.2004 56.8337 19.1044 56.5457 19.1044V19.1044ZM10.3697 26.4004C10.1777 25.9204 9.79366 25.5364 9.40966 25.2484C9.12166 25.0564 8.83366 24.8644 8.44966 24.7684C8.92966 24.5764 9.31366 24.1924 9.60166 23.7124C9.88966 23.2324 9.98566 22.7524 9.98566 22.2724C9.98566 21.7924 9.98566 19.0084 6.14566 19.0084H0.385656H0.289656C0.289656 19.0084 0.193656 19.0084 0.193656 19.1044L0.0976562 19.2004V31.1044C0.0976562 31.1044 0.0976562 31.2004 0.193656 31.2004L0.289656 31.2964H6.43366C10.3697 31.2964 10.5617 28.4164 10.5617 27.7444C10.6577 27.3604 10.5617 26.8804 10.3697 26.4004V26.4004ZM3.74566 21.8884H4.99366C5.28166 21.8884 5.56966 21.9844 5.95366 22.0804C6.14566 22.1764 6.24166 22.2724 6.33766 22.3684C6.43366 22.5604 6.43366 22.6564 6.43366 22.8484C6.43366 23.4244 6.04966 23.8084 5.08966 23.8084H3.74566V21.8884V21.8884ZM5.18566 28.6084H3.74566V26.5924H5.18566C6.24166 26.5924 6.81766 27.0724 6.81766 27.5524C6.81766 28.3204 6.33766 28.6084 5.18566 28.6084ZM126.242 18.0484C127.01 18.0484 127.682 17.9524 128.354 17.6644C129.026 17.3764 129.602 16.8964 129.986 16.2244L130.082 16.1284V16.0324C130.082 16.0324 130.082 15.9364 129.986 15.9364L129.89 15.8404L128.066 14.9764H127.778C127.682 14.9764 127.586 15.0724 127.586 15.1684C127.394 15.3604 127.202 15.5524 126.914 15.7444C126.626 15.8404 126.338 15.9364 126.146 15.9364C125.954 15.9364 125.57 15.8404 125.378 15.7444C125.09 15.6484 124.898 15.4564 124.706 15.1684C124.61 14.9764 124.418 14.8804 124.322 15.0724L122.498 15.9364C122.402 16.0324 122.402 16.0324 122.402 16.1284V16.4164C122.786 16.9924 123.362 17.5684 124.034 17.8564C124.802 18.0484 125.474 18.1444 126.242 18.0484C126.242 18.1444 126.242 18.0484 126.242 18.0484V18.0484ZM32.5457 22.0804C33.0257 22.0804 33.5057 22.1764 33.8897 22.3684C34.2737 22.5604 34.6577 22.8484 34.9457 23.2324L35.0417 23.3284H35.2337C35.2337 23.3284 35.3297 23.3284 35.3297 23.2324L37.0577 21.0244C37.1537 20.9284 37.1537 20.8324 37.1537 20.7364C37.1537 20.6404 37.1537 20.5444 37.0577 20.4484C35.7137 19.3924 34.0817 18.7204 32.4497 18.7204C31.5857 18.7204 30.7217 18.8164 29.9537 19.1044C29.1857 19.3924 28.4177 19.8724 27.8417 20.4484C27.2657 21.0244 26.7857 21.7924 26.4977 22.5604C26.2097 23.3284 26.1137 24.1924 26.1137 25.0564C26.1137 27.5524 27.6497 31.3924 32.3537 31.3924C34.0817 31.3924 35.7137 30.8164 36.9617 29.6644C37.0577 29.5684 37.0577 29.4724 37.0577 29.3764C37.0577 29.2804 37.0577 29.1844 36.9617 29.0884L35.5217 27.3604L35.4257 27.2644H35.3297H35.2337C35.2337 27.2644 35.1377 27.2644 35.1377 27.3604C34.8497 27.7444 34.4657 27.9364 33.9857 28.1284C33.6017 28.3204 33.1217 28.4164 32.6417 28.4164C31.3937 28.4164 30.1457 27.3604 30.1457 25.1524C29.9537 23.4244 30.9137 22.0804 32.5457 22.0804V22.0804ZM24.3857 22.8484C24.0977 22.0804 23.6177 21.3124 23.0417 20.7364C22.4657 20.1604 21.6977 19.6804 20.9297 19.3924C20.1617 19.1044 19.2977 18.9124 18.4337 19.0084C17.5697 19.0084 16.7057 19.1044 15.9377 19.3924C15.1697 19.6804 14.4017 20.1604 13.8257 20.7364C13.2497 21.3124 12.7697 22.0804 12.4817 22.8484C12.1937 23.6164 12.0977 24.4804 12.0977 25.3444C12.0977 27.9364 13.6337 31.7764 18.3377 31.7764C23.0417 31.7764 24.5777 27.9364 24.5777 25.3444C24.7697 24.4804 24.6737 23.6164 24.3857 22.8484ZM18.4337 28.6084C17.1857 28.6084 15.8417 27.5524 15.8417 25.2484C15.8417 23.3284 16.8017 21.8884 18.4337 21.8884C19.9697 21.8884 20.9297 23.3284 20.9297 25.2484C20.9297 27.5524 19.6817 28.6084 18.4337 28.6084ZM98.6897 19.1044H95.6177H95.5217C95.5217 19.1044 95.4257 19.1044 95.4257 19.2004L95.3297 19.2964V23.7124H91.6817V19.3924V19.2964C91.6817 19.2964 91.6817 19.2004 91.5857 19.2004L91.4897 19.1044H88.3217H88.2257C88.2257 19.1044 88.1297 19.1044 88.1297 19.2004L88.0337 19.2964V31.2004C88.0337 31.2004 88.0337 31.2964 88.1297 31.2964L88.2257 31.3924H91.4897C91.4897 31.3924 91.5857 31.3924 91.5857 31.2964L91.6817 31.2004V26.5924H95.3297V31.2004C95.3297 31.2004 95.3297 31.2964 95.4257 31.2964L95.5217 31.3924H98.7857C98.7857 31.3924 98.8817 31.3924 98.8817 31.2964L98.9777 31.2004V19.3924C99.0737 19.2004 98.8817 19.1044 98.6897 19.1044ZM131.426 19.1044H127.97C127.874 19.1044 127.874 19.2004 127.874 19.2964L124.418 25.6324V19.3924V19.2964C124.418 19.2964 124.418 19.2004 124.322 19.2004L124.226 19.1044H121.058H120.962C120.962 19.1044 120.866 19.1044 120.866 19.2004L120.77 19.2964V31.1044C120.77 31.1044 120.77 31.2004 120.866 31.2004L120.962 31.2964H124.322C124.418 31.2964 124.418 31.2964 124.514 31.2004C124.61 31.2004 124.61 31.1044 124.61 31.1044L128.066 24.7684V31.1044C128.066 31.1044 128.066 31.2004 128.162 31.2004L128.258 31.2964H131.522C131.522 31.2964 131.618 31.2964 131.618 31.2004L131.714 31.1044V19.3924V19.2964C131.714 19.2964 131.714 19.2004 131.618 19.2004L131.522 19.1044H131.426V19.1044ZM71.9057 22.8484C71.6177 22.0804 71.1377 21.3124 70.5617 20.7364C69.9857 20.1604 69.2177 19.6804 68.4497 19.3924C67.6817 19.1044 66.8177 18.9124 65.9537 19.0084C65.0897 19.0084 64.2257 19.1044 63.4577 19.3924C62.6897 19.6804 61.9217 20.1604 61.3457 20.7364C60.7697 21.3124 60.2897 22.0804 60.0017 22.8484C59.7137 23.6164 59.6177 24.4804 59.6177 25.3444C59.6177 27.9364 61.1537 31.7764 65.8577 31.7764C70.5617 31.7764 72.0977 27.9364 72.0977 25.3444C72.3857 24.4804 72.1937 23.6164 71.9057 22.8484ZM66.0497 28.6084C64.8017 28.6084 63.4577 27.5524 63.4577 25.2484C63.4577 23.3284 64.4177 21.8884 66.0497 21.8884C67.6817 21.8884 68.6417 23.3284 68.6417 25.2484C68.5457 27.5524 67.2017 28.6084 66.0497 28.6084ZM117.41 19.1044H114.338H114.242C114.242 19.1044 114.146 19.1044 114.146 19.2004L114.05 19.2964V31.2004C114.05 31.2004 114.05 31.2964 114.146 31.2964L114.242 31.3924H117.506C117.506 31.3924 117.602 31.3924 117.602 31.2964L117.698 31.2004V19.3924V19.2964C117.698 19.2964 117.698 19.2004 117.602 19.2004L117.506 19.1044H117.41V19.1044ZM107.522 23.6164H105.698V19.4884V19.3924C105.698 19.3924 105.698 19.2964 105.602 19.2964L105.506 19.2004H102.338H102.242C102.242 19.2004 102.146 19.2004 102.146 19.2964L102.05 19.3924V31.2964C102.05 31.2964 102.05 31.3924 102.146 31.3924L102.242 31.4884H107.618C110.786 31.4884 112.514 30.0484 112.514 27.4564C112.418 24.8644 110.69 23.6164 107.522 23.6164V23.6164ZM108.194 28.4164C107.906 28.6084 107.522 28.7044 107.234 28.7044H105.794V26.4964H107.234C107.522 26.4964 107.906 26.5924 108.194 26.6884C108.386 26.7844 108.482 26.8804 108.578 27.0724C108.674 27.2644 108.674 27.4564 108.674 27.6484C108.578 27.9364 108.482 28.2244 108.194 28.4164ZM84.5777 19.0084H81.6017H81.5057C81.5057 19.0084 81.4097 19.0084 81.4097 19.1044L81.3137 19.2004V24.3844C78.3377 24.8644 77.8577 23.8084 77.8577 22.9444V19.3924V19.2964C77.8577 19.2964 77.8577 19.2004 77.7617 19.2004L77.6657 19.1044H74.4977C74.4017 19.1044 74.3057 19.1044 74.3057 19.2004C74.3057 19.2964 74.2097 19.2964 74.2097 19.3924V21.7924C74.2097 23.1364 74.3057 24.5764 74.3057 25.0564C74.5937 26.6884 76.0337 27.3604 77.5697 27.5524C78.8177 27.6484 80.1617 27.5524 81.3137 27.2644V31.2004C81.3137 31.2004 81.3137 31.2964 81.4097 31.2964L81.5057 31.3924H84.7697C84.7697 31.3924 84.8657 31.3924 84.8657 31.2964L84.9617 31.2004V19.3924C84.9617 19.2964 84.8657 19.2004 84.8657 19.1044C84.7697 19.1044 84.6737 19.1044 84.5777 19.0084C84.5777 19.1044 84.5777 19.0084 84.5777 19.0084V19.0084ZM177.89 19.0084H174.818H174.722C174.722 19.0084 174.626 19.0084 174.626 19.1044L174.53 19.2004V23.6164H170.882V19.2964V19.2004C170.882 19.2004 170.882 19.1044 170.786 19.1044L170.69 19.0084H167.522H167.426C167.426 19.0084 167.33 19.0084 167.33 19.1044L167.234 19.2004V31.1044C167.234 31.1044 167.234 31.2004 167.33 31.2004L167.426 31.2964H170.69C170.69 31.2964 170.786 31.2964 170.786 31.2004L170.882 31.1044V26.4964H174.53V31.1044C174.53 31.1044 174.53 31.2004 174.626 31.2004L174.722 31.2964H177.986C177.986 31.2964 178.082 31.2964 178.082 31.2004L178.178 31.1044V19.3924V19.2964C178.178 19.2964 178.178 19.2004 178.082 19.2004L177.986 19.1044C177.986 19.1044 177.89 19.1044 177.89 19.0084V19.0084ZM147.65 23.8084H144.962V21.9844H150.722C150.722 21.9844 150.818 21.9844 150.818 21.8884L150.914 21.7924V19.5844V19.4884C150.914 19.4884 150.914 19.3924 150.818 19.3924L150.722 19.2964H141.506H141.41C141.41 19.2964 141.314 19.2964 141.314 19.3924L141.218 19.4884V31.3924C141.218 31.3924 141.218 31.4884 141.314 31.4884L141.41 31.5844H147.554C151.49 31.5844 151.778 28.7044 151.778 27.7444C151.778 26.7844 151.586 23.8084 147.65 23.8084V23.8084ZM146.402 28.6084H144.962V26.4964H146.402C147.458 26.4964 147.938 26.8804 148.034 27.5524C148.034 28.2244 147.458 28.6084 146.402 28.6084V28.6084ZM188.162 25.2484L191.906 19.5844C191.906 19.4884 192.002 19.4884 192.002 19.3924V19.2964C192.002 19.2964 192.002 19.2004 191.906 19.2004L191.81 19.1044H188.258C188.162 19.1044 188.162 19.2004 188.162 19.2964L184.994 24.4804V19.3924V19.2964C184.994 19.2964 184.994 19.2004 184.898 19.2004L184.802 19.1044H181.634H181.538C181.538 19.1044 181.442 19.1044 181.442 19.2004L181.346 19.2964V31.1044C181.346 31.1044 181.346 31.2004 181.442 31.2004L181.538 31.2964H184.802C184.802 31.2964 184.898 31.2964 184.898 31.2004L184.994 31.1044V25.9204L188.162 31.2004C188.162 31.2964 188.258 31.2964 188.258 31.2964C188.354 31.2964 188.354 31.3924 188.45 31.3924H191.81C191.81 31.3924 191.906 31.3924 191.906 31.2964L192.002 31.2004V31.1044C192.002 31.0084 192.002 30.9124 191.906 30.9124L188.162 25.2484V25.2484ZM165.41 31.0084L160.994 19.3924C160.994 19.2964 160.898 19.2964 160.898 19.2004C160.802 19.2004 160.802 19.1044 160.706 19.1044H157.442C157.346 19.1044 157.25 19.1044 157.25 19.2004C157.154 19.2004 157.154 19.2964 157.154 19.3924L152.642 31.0084V31.2964C152.642 31.2964 152.642 31.3924 152.738 31.3924L152.834 31.4884H156.098C156.194 31.4884 156.29 31.4884 156.29 31.3924C156.386 31.3924 156.386 31.2964 156.386 31.2004L156.866 29.3764H160.802L161.378 31.2004C161.378 31.2964 161.474 31.2964 161.474 31.3924C161.57 31.3924 161.57 31.4884 161.666 31.4884H165.026C165.026 31.4884 165.122 31.4884 165.122 31.3924L165.218 31.2964V31.2004L165.41 31.0084V31.0084ZM157.922 26.5924L158.978 22.8484L160.13 26.5924H157.922V26.5924Z" fill="#AEB3CA"/>
</g>
<defs>
<clipPath id="clip0">
<rect width="192" height="48" fill="white"/>
</clipPath>
</defs>
</svg>

<?xml version="1.0" encoding="UTF-8"?>
<svg fill="none" viewBox="0 0 192 48" xmlns="http://www.w3.org/2000/svg">
<g clip-path="url(#a)" opacity=".5">
<path d="m38.687 16.32c-0.288-0.48-0.288-0.96-0.192-1.44s0.48-0.864 0.864-1.152l8.64-4.992c0.096 0 0.288-0.096 0.48-0.096s0.384 0.096 0.48 0.096l8.64 4.896c0.384 0.288 0.768 0.672 0.864 1.152s0.096 0.96-0.192 1.44c-0.288 0.384-0.672 0.768-1.152 0.864-0.48 0.192-0.96 0.192-1.44-0.096l-7.2-4.128-7.2 4.128c-0.192 0.096-0.48 0.192-0.672 0.288h-0.768c-0.288-0.096-0.48-0.192-0.672-0.288-0.192-0.288-0.288-0.48-0.48-0.672z" fill="#555F8C"/>
<path d="m56.546 19.104h-16.032c-0.288 0-0.48 0.096-0.672 0.288s-0.288 0.384-0.288 0.672v9.216c0 0.576 0.192 1.152 0.672 1.536 0.384 0.384 0.96 0.672 1.536 0.672s1.152-0.192 1.536-0.672c0.384-0.384 0.672-0.96 0.672-1.536v-6.432h2.592v6.432c0 0.576 0.192 1.152 0.672 1.536 0.384 0.384 0.96 0.672 1.536 0.672s1.152-0.192 1.536-0.672c0.384-0.384 0.672-0.96 0.672-1.536v-6.432h2.592v6.432c0 0.576 0.192 1.152 0.672 1.536 0.384 0.384 0.96 0.672 1.536 0.672s1.152-0.192 1.536-0.672c0.384-0.384 0.672-0.96 0.672-1.536v-9.216c-0.096-0.288-0.192-0.48-0.384-0.672-0.576-0.192-0.768-0.288-1.056-0.288zm-46.176 7.296c-0.192-0.48-0.57604-0.864-0.96004-1.152-0.288-0.192-0.576-0.384-0.96-0.48 0.48-0.192 0.864-0.576 1.152-1.056s0.384-0.96 0.384-1.44 0-3.264-3.84-3.264h-5.856s-0.096 0-0.096 0.096l-0.096 0.096v11.904s0 0.096 0.096 0.096l0.096 0.096h6.144c3.936 0 4.128-2.88 4.128-3.552 0.096-0.384 0-0.864-0.192-1.344zm-6.624-4.512h1.248c0.288 0 0.576 0.096 0.96 0.192 0.192 0.096 0.288 0.192 0.384 0.288 0.096 0.192 0.096 0.288 0.096 0.48 0 0.576-0.384 0.96-1.344 0.96h-1.344v-1.92zm1.44 6.72h-1.44v-2.016h1.44c1.056 0 1.632 0.48 1.632 0.96 0 0.768-0.48 1.056-1.632 1.056zm121.06-10.56c0.768 0 1.44-0.096 2.112-0.384s1.248-0.768 1.632-1.44l0.096-0.096v-0.096s0-0.096-0.096-0.096l-0.096-0.096-1.824-0.864h-0.288c-0.096 0-0.192 0.096-0.192 0.192-0.192 0.192-0.384 0.384-0.672 0.576-0.288 0.096-0.576 0.192-0.768 0.192s-0.576-0.096-0.768-0.192c-0.288-0.096-0.48-0.288-0.672-0.576-0.096-0.192-0.288-0.288-0.384-0.096l-1.824 0.864c-0.096 0.096-0.096 0.096-0.096 0.192v0.288c0.384 0.576 0.96 1.152 1.632 1.44 0.768 0.192 1.44 0.288 2.208 0.192v0zm-93.696 4.032c0.48 0 0.96 0.096 1.344 0.288s0.768 0.48 1.056 0.864l0.096 0.096h0.192s0.096 0 0.096-0.096l1.728-2.208c0.096-0.096 0.096-0.192 0.096-0.288s0-0.192-0.096-0.288c-1.344-1.056-2.976-1.728-4.608-1.728-0.864 0-1.728 0.096-2.496 0.384s-1.536 0.768-2.112 1.344-1.056 1.344-1.344 2.112-0.384 1.632-0.384 2.496c0 2.496 1.536 6.336 6.24 6.336 1.728 0 3.36-0.576 4.608-1.728 0.096-0.096 0.096-0.192 0.096-0.288s0-0.192-0.096-0.288l-1.44-1.728-0.096-0.096h-0.192s-0.096 0-0.096 0.096c-0.288 0.384-0.672 0.576-1.152 0.768-0.384 0.192-0.864 0.288-1.344 0.288-1.248 0-2.496-1.056-2.496-3.264-0.192-1.728 0.768-3.072 2.4-3.072zm-8.16 0.768c-0.288-0.768-0.768-1.536-1.344-2.112s-1.344-1.056-2.112-1.344-1.632-0.48-2.496-0.384c-0.864 0-1.728 0.096-2.496 0.384s-1.536 0.768-2.112 1.344-1.056 1.344-1.344 2.112-0.384 1.632-0.384 2.496c0 2.592 1.536 6.432 6.24 6.432s6.24-3.84 6.24-6.432c0.192-0.864 0.096-1.728-0.192-2.496zm-5.952 5.76c-1.248 0-2.592-1.056-2.592-3.36 0-1.92 0.96-3.36 2.592-3.36 1.536 0 2.496 1.44 2.496 3.36 0 2.304-1.248 3.36-2.496 3.36zm80.256-9.504h-3.168s-0.096 0-0.096 0.096l-0.096 0.096v4.416h-3.648v-4.416s0-0.096-0.096-0.096l-0.096-0.096h-3.264s-0.096 0-0.096 0.096l-0.096 0.096v11.904s0 0.096 0.096 0.096l0.096 0.096h3.264s0.096 0 0.096-0.096l0.096-0.096v-4.608h3.648v4.608s0 0.096 0.096 0.096l0.096 0.096h3.264s0.096 0 0.096-0.096l0.096-0.096v-11.808c0.096-0.192-0.096-0.288-0.288-0.288zm32.736 0h-3.456c-0.096 0-0.096 0.096-0.096 0.192l-3.456 6.336v-6.336s0-0.096-0.096-0.096l-0.096-0.096h-3.264s-0.096 0-0.096 0.096l-0.096 0.096v11.808s0 0.096 0.096 0.096l0.096 0.096h3.36c0.096 0 0.096 0 0.192-0.096 0.096 0 0.096-0.096 0.096-0.096l3.456-6.336v6.336s0 0.096 0.096 0.096l0.096 0.096h3.264s0.096 0 0.096-0.096l0.096-0.096v-11.808s0-0.096-0.096-0.096l-0.096-0.096h-0.096zm-59.52 3.744c-0.288-0.768-0.768-1.536-1.344-2.112s-1.344-1.056-2.112-1.344-1.632-0.48-2.496-0.384c-0.864 0-1.728 0.096-2.496 0.384s-1.536 0.768-2.112 1.344-1.056 1.344-1.344 2.112-0.384 1.632-0.384 2.496c0 2.592 1.536 6.432 6.24 6.432s6.24-3.84 6.24-6.432c0.288-0.864 0.096-1.728-0.192-2.496zm-5.856 5.76c-1.248 0-2.592-1.056-2.592-3.36 0-1.92 0.96-3.36 2.592-3.36s2.592 1.44 2.592 3.36c-0.096 2.304-1.44 3.36-2.592 3.36zm51.36-9.504h-3.168s-0.096 0-0.096 0.096l-0.096 0.096v11.904s0 0.096 0.096 0.096l0.096 0.096h3.264s0.096 0 0.096-0.096l0.096-0.096v-11.904s0-0.096-0.096-0.096l-0.096-0.096h-0.096zm-9.888 4.512h-1.824v-4.224s0-0.096-0.096-0.096l-0.096-0.096h-3.264s-0.096 0-0.096 0.096l-0.096 0.096v11.904s0 0.096 0.096 0.096l0.096 0.096h5.376c3.168 0 4.896-1.44 4.896-4.032-0.096-2.592-1.824-3.84-4.992-3.84zm0.672 4.8c-0.288 0.192-0.672 0.288-0.96 0.288h-1.44v-2.208h1.44c0.288 0 0.672 0.096 0.96 0.192 0.192 0.096 0.288 0.192 0.384 0.384s0.096 0.384 0.096 0.576c-0.096 0.288-0.192 0.576-0.48 0.768zm-23.616-9.408h-3.072s-0.096 0-0.096 0.096l-0.096 0.096v5.184c-2.976 0.48-3.456-0.576-3.456-1.44v-3.648s0-0.096-0.096-0.096l-0.096-0.096h-3.168c-0.096 0-0.192 0-0.192 0.096s-0.096 0.096-0.096 0.192v2.4c0 1.344 0.096 2.784 0.096 3.264 0.288 1.632 1.728 2.304 3.264 2.496 1.248 0.096 2.592 0 3.744-0.288v3.936s0 0.096 0.096 0.096l0.096 0.096h3.264s0.096 0 0.096-0.096l0.096-0.096v-11.808c0-0.096-0.096-0.192-0.096-0.288-0.096 0-0.192 0-0.288-0.096v0zm93.312 0h-3.168s-0.096 0-0.096 0.096l-0.096 0.096v4.416h-3.648v-4.416s0-0.096-0.096-0.096l-0.096-0.096h-3.264s-0.096 0-0.096 0.096l-0.096 0.096v11.904s0 0.096 0.096 0.096l0.096 0.096h3.264s0.096 0 0.096-0.096l0.096-0.096v-4.608h3.648v4.608s0 0.096 0.096 0.096l0.096 0.096h3.264s0.096 0 0.096-0.096l0.096-0.096v-11.808s0-0.096-0.096-0.096l-0.096-0.096s-0.096 0-0.096-0.096zm-30.24 4.8h-2.688v-1.824h5.76s0.096 0 0.096-0.096l0.096-0.096v-2.304s0-0.096-0.096-0.096l-0.096-0.096h-9.312s-0.096 0-0.096 0.096l-0.096 0.096v11.904s0 0.096 0.096 0.096l0.096 0.096h6.144c3.936 0 4.224-2.88 4.224-3.84s-0.192-3.936-4.128-3.936zm-1.248 4.8h-1.44v-2.112h1.44c1.056 0 1.536 0.384 1.632 1.056 0 0.672-0.576 1.056-1.632 1.056zm41.76-3.36 3.744-5.664c0-0.096 0.096-0.096 0.096-0.192v-0.096s0-0.096-0.096-0.096l-0.096-0.096h-3.552c-0.096 0-0.096 0.096-0.096 0.192l-3.168 5.184v-5.184s0-0.096-0.096-0.096l-0.096-0.096h-3.264s-0.096 0-0.096 0.096l-0.096 0.096v11.808s0 0.096 0.096 0.096l0.096 0.096h3.264s0.096 0 0.096-0.096l0.096-0.096v-5.184l3.168 5.28c0 0.096 0.096 0.096 0.096 0.096 0.096 0 0.096 0.096 0.192 0.096h3.36s0.096 0 0.096-0.096l0.096-0.096v-0.096c0-0.096 0-0.192-0.096-0.192l-3.744-5.664zm-22.752 5.76-4.416-11.616c0-0.096-0.096-0.096-0.096-0.192-0.096 0-0.096-0.096-0.192-0.096h-3.264c-0.096 0-0.192 0-0.192 0.096-0.096 0-0.096 0.096-0.096 0.192l-4.512 11.616v0.288s0 0.096 0.096 0.096l0.096 0.096h3.264c0.096 0 0.192 0 0.192-0.096 0.096 0 0.096-0.096 0.096-0.192l0.48-1.824h3.936l0.576 1.824c0 0.096 0.096 0.096 0.096 0.192 0.096 0 0.096 0.096 0.192 0.096h3.36s0.096 0 0.096-0.096l0.096-0.096v-0.096l0.192-0.192zm-7.488-4.416 1.056-3.744 1.152 3.744h-2.208z" fill="#AEB3CA"/>
</g>
<defs>
<clipPath id="a">
<rect width="192" height="48" fill="#fff"/>
</clipPath>
</defs>
</svg>
